X:360
T: SCHIEBEN WIR DEN WAGEN
N: E0990
O: Europa, Mitteleuropa, Deutschland, Rheinland, Siebengebirge
R: Tanz - Lied, Reigen, Gesellschafts - Spiel
M: 2/4
L: 1/8
K: F
 | CCCC | D2D
D | CCCC | F2z2
CCCC | D2D
D | CCCC | F2z
F | FFAA | AGG
F | EFGA | F2z
F | FFAA | AGG
F | EFGA | F2z2

